X:1
T:Beethoven Sonata 32 (Opus 111) mvt 2
T:Arietta
%%score { 1 | 2 } { 3 | 4 }
L:1/8
Q:1/4=32
M:9/16
K:C
V:1 treble nm="Piano"
V:2 treble 
V:3 bass nm="Piano"
V:4 bass 
V:1
"^Adagio Molto Semplice et Cantibile" cG/ | G3[Q:1/4=32]"^T1" dG/[Q:1/4=27]"^T1" | %2
 G3[Q:1/4=28]"^T1" G3/2[Q:1/4=26]"^T1" |[Q:1/4=32]"^T1" G3/2e3/2c3/2 | %4
 c3/2[Q:1/4=29]"^T1"B3/2[Q:1/4=32]"^T1"B3/2 | c3/2e3/2g3/2 | g3/2f3/2 dc/ | B3/2c3/2dG/ |1 %8
[Q:1/4=29]"^T1" G3 :|2[Q:1/4=29]"^T1" G3[Q:1/4=29]"^T1" E3/2 |: c3 cB/[Q:1/4=32]"^T1" | B3 Be/ | %12
 e3/2e3/2dc/ | c3/2B3/2c3/2 | d3 d3/2 | e3 f3/2 | d3/2d3/2 dg/ |1 ge/ e3/2 E3/2 :|2 ge/ e3/2 cE/ |: %19
"^Variation I (same tempo)" AE/ GF/ dD/ | GD/ FE/ GF/ | AG/ eE/ cE/ | cB/ AG/ AB/ | cE/ eG/ g_B/ | %24
 gA/ fA/ dc/ | cB/ c^c/ c/[Gd]/G/ |1 G3 cE/ :|2 G->G^G/A/ B/E/E/ || cE/ |: FD/ cE/ | %30
 B[B,E-]/ [CE]/c/B/ c/B/e/ | fe/ ed/ d/c/c/- | c/B/B/- B/c/c/- c/d/d/ | [Bd]3 [B^d]3/2 | %34
 e3/2 eg/ gf/ | ed/ ^cd/ d/a/g/ |1 g/f/e/ f/e/c z | cE/ :|2 g/f/e/f/e/e/ |: %39
[M:6/16]"^Variation II (same tempo)" z | (3:2:2e/c/4(3:2:2B/c/4(3:2:2d/B/4(3:2:2^A/B/4 z | %41
 z (3:2:2G/E/4(3:2:2^D/E/4(3:2:2G/E/4(3:2:2G/F/4 | (3:2:2A/^F/4(3:2:2A/G/4ec- | %43
 (3:2:2c/B/4(3:2:2d/c/4(3:2:2c/^A/4(3:2:2c/B/4[GB] | c(3:2:2e/d/4(3:2:2f/e/4g- | %45
 g/g/-(3:2:2g/e/4(3:2:2g/f/4(3:2:2e/^c/4(3:2:2e/d/4 | c/B/c/^c/d/(3:2:2d/G/4 |1 G/G/-G/G/ :|2 %48
 G/G/-(3:2:2G/^G/4(3:2:2A/B/4(3:2:2E/E/4-(3:2:2E/E/4 |: %49
 c/-(3:2:2c/B/4c/-(3:2:2c/B/4c/-(3:2:2c/B/4 | B/-(3:2:2B/c/4B/-(3:2:2B/c/4B/-(3:2:2B/c/4 | %51
 e/-(3:2:2e/e/4e/-(3:2:2e/d/4(3:2:2d/c/4(3:2:2c/B/4 | %52
 (3:2:2B/B/4-(3:2:2B/B/4-(3:2:2B/c/4-(3:2:2c/c/4-(3:2:2c/d/4-(3:2:2d/d'/4 | %53
 [bd']d-(3:2:2d/^d/4(3:2:2f/e/4 | e-e/e/-(3:2:2e/e/4(3:2:2g/f/4 | %55
 (3:2:2d/^f/4(3:2:2a/g/4-g/(3:2:2a/g/4-g/(3:2:2a/g/4 |1 %56
 g/-(3:2:2g/f/4e/ z/ (3:2:2z/ E/4-(3:2:2E/E/4 :|[M:4/16] g/-(3:2:2g/f/4(3:2:2e/g/4-(3:2:2g/g/4 |: %58
[M:2/16]"^Variation III (same tempo)" (3:2:2c'/4g/8(3:2:2e/4c/8(3:2:2G/4E/8(3:2:2C/4G,/8 | %59
 G/4-(3:2:2G/4G/8-G/4-(3:2:2G/4G/8G/4-(3:2:2G/4G/8-G/4-(3:2:2G/4G/8(3:2:2f'/4d'/8(3:2:2b/4g/8(3:2:2f/4d/8(3:2:2B/4G/8 | %60
 G/4-(3:2:2G/4G/8-G/4-(3:2:2G/4G/8G/4-(3:2:2G/4G/8-G/4-(3:2:2G/4G/8(3:2:2g'/4e'/8(3:2:2c'/4g/8(3:2:2e/4c/8(3:2:2G/4g/8 | %61
 [G_B^cg]/4-(3:2:2[GBcg]/4[GBcg]/8[G=Bdg]/4-(3:2:2[GBdg]/4[GBdg]/8[GBg]/4-(3:2:2[GBg]/4[GBg]/8[G=cg]/4-(3:2:2[Gcg]/4[Gcg]/8[ege']/4-(3:2:2[ege']/4[ege']/8-[ege']/4-(3:2:2[ege']/4[ccec']/8 | %62
 (3:2:2c'/4a/8(3:2:2^f/4_e/8(3:2:2c/4A/8(3:2:2^F/4[_Ec]/8(3:2:2b/4g/8(3:2:2d/4B/8(3:2:2G/4D/8(3:2:2B,/4[Bd_ab]/8-[Bdab]/4-(3:2:2[Bdab]/4[B-d-ab-]/8[B-d-g-b]/4(3:2:2[Bdgb]/4[Bdgb]/8 | %63
 (3:2:2c'/4g/8(3:2:2e/4c/8(3:2:2G/4E/8(3:2:2e/4c/8(3:2:2e/4c/8(3:2:2g/4e/8(3:2:2c/4G/8(3:2:2e/4c/8(3:2:2g/4e/8(3:2:2c'/4g/8(3:2:2e/4c/8(3:2:2g/4e/8 | %64
 z/4 (3:2:2g/4e/8(3:2:2^c/4e/8(3:2:2g/4e/8(3:2:2f/4d/8(3:2:2f/4A/8(3:2:2f/4F/8(3:2:2A/4F/8(3:2:2A/4F/8(3:2:2f/4d/8(3:2:2A/4a/8(3:2:2f/4d/8 | %65
 (3:2:2c/4B/8(3:2:2f/4d/8(3:2:2b/4f/8(3:2:2d/4B/8(3:2:2d/4c/8(3:2:2_a/4f/8(3:2:2c'/4=a/8(3:2:2f/4c/8(3:2:2_e/4d/8(3:2:2d'/4d/8(3:2:2d'/4d/8(3:2:2d'/4[dg]/8 |1 %66
[M:4/16] g/4-(3:2:2g/4g/8g/4-(3:2:2g/4-g/8g/4-(3:2:2g/4-g/8(3:2:2f/4g/8(3:2:2a/4b/8 :|2 %67
[M:6/16] g/4-(3:2:2g/4g/8-g/4-(3:2:2g/4g/8g/4-(3:2:2g/4g/8-g/4-(3:2:2g/4g/8(3:2:2^g/4a/8(3:2:2b/4E/8-(3:2:2E/4-E/8-(3:2:2E/4E/8 |: %68
 c/4-(3:2:2c/4c/8-c/4-(3:2:2c/4c/8(3:2:2c'/4^g/8(3:2:2a/4e/8(3:2:2d/4c/8(3:2:2e/4c/8(3:2:2B/4A/8(3:2:2c/4A/8(3:2:2B/4A/8(3:2:2c/4[DFB]/8 | %69
 [DE-B-]/4(3:2:2[DEB]/4[DEB]/8-[DEB]/4-(3:2:2[DEB]/4[DEB]/8(3:2:2c'/4b/8(3:2:2e'/4b/8(3:2:2a/4^g/8(3:2:2b/4e/8(3:2:2b/4e/8(3:2:2f/4d/8(3:2:2c/4B/8(3:2:2e/4B/8 | %70
 (3:2:2c/4B/8(3:2:2e/4B/8(3:2:2d/4c/8(3:2:2e/4c/8(3:2:2e/4d/8(3:2:2^g/4d/8(3:2:2f/4e/8(3:2:2a/4e/8(3:2:2a/4f/8(3:2:2a/4B/8(3:2:2a/4^f/8(3:2:2a/4c/8 | %71
 a/4a/4b/- b/4b/4c'/- c'/4(3:2:2c'/4b/8d'/4-(3:2:2d'/4d'/8 | %72
 [fgbd']/4-(3:2:2[fgbd']/4[fgbd']/8-[fgbd']/4-(3:2:2[fgbd']/4[fgbd']/8-(3:2:2[fgbd']/4b/8(3:2:2f'/4d'/8(3:2:2c'/4b/8(3:2:2d'/4b/8(3:2:2g/4f/8(3:2:2a/4f/8(3:2:2e/4d/8(3:2:2f/4d/8 | %73
 [Gce]/4-(3:2:2[Gce]/4[Gce]/8-[Gce]/4-(3:2:2[Gce]/4[Gce]/8-(3:2:2[Gce]/4[GB]/8(3:2:2[Ac]/4[Bd]/8e/-(3:2:2e/4^c/8(3:2:2d/4e/8f/- | %74
 (3:2:2f/4^c/8(3:2:2d/4e/8d/-(3:2:2d/4c/8(3:2:2d/4e/8d/-(3:2:2d/4e/8(3:2:2f/4^f/8g/ |1 %75
 (3:2:2g/4a/8(3:2:2g/4a/8(3:2:2g/4[df]/8(3:2:2e/4[df]/8(3:2:2e/4[df]/8(3:2:2e/4d/8(3:2:2c/4B/8(3:2:2c/4e/8(3:2:2E/4[ce]/8(3:2:2E/4[Bd]/8(3:2:2E/4[Ac]/8(3:2:2E/4[^GB]/8 :|2 %76
 (3:2:2g/4a/8(3:2:2g/4a/8(3:2:2g/4[df]/8(3:2:2e/4[df]/8(3:2:2e/4F/8(3:2:2E/4D/8(3:2:2C/4 z/8 z/4 || %77
[M:9/16] z/ [cea]/-[cea]/ | %78
[K:bass]"^Variation IV" z/ [B,,D,F,G,]/-[B,,D,F,G,]/ z/ [B,,D,F,G,]/-[B,,D,F,G,]/ z/ [F,G,B,D]/-[F,G,B,D]/ | %79
 z/ [D,F,G,-]/[C,E,G,]/ z/ [C,E,G,]/-[C,E,G,]/ z/ [D,F,G,]/-[D,F,G,]/ | %80
 z/ [^D,^F,G,-]/[E,G,]/ z/ [E,G,E]/-[E,G,E]/ z/ [_E,^F,A,C]/-[_E,^F,A,C]/ | %81
 z/ [D,F,_A,C]/-[D,F,A,C]/ z/ [D,F,A,B,]/-[D,F,A,B,]/ z/ [D,F,G,B,]/-[D,F,G,B,]/ | %82
 z/ [^D,^F,C-]/[E,G,C]/ z/ [G,B,-E-]/[G,B,E]/[K:treble] z/ [_B,_D-E-G-]/[B,DEG]/ | %83
 z/ [_B,_DEG]/-[B,DEG]/[K:bass] z/ [F,CF]/-[F,CF]/ z/ [F,_A,=D]/-[F,A,D]/ | %84
 z/ [F,-_A,B,-]/[F,G,B,]/ z/ [F,G,-C-]/[E,G,C]/ z/ [F,G,D]/[D,F,G,]/ | %85
[K:treble] (3G,/4A,/4B,/4(3C/4D/4E/4(3F/4G/4A/4(3B/4c/4d/4(3e/4f/4g/4(3a/4g/4b/4(3c'/4d'/4c'/4(3b/4c'/4b/4(3c'/4d'/4c'/4 | %86
 (3g/4a/4g/4(3^f/4g/4f/4(3g/4a/4g/4(3f/4g/4f/4(3g/4a/4g/4(3^c'/4d'/4c'/4(3d'/4e'/4d'/4(3c'/4d'/4c'/4(3d'/4e'/4d'/4 | %87
 (3^c'/4d'/4c'/4(3d'/4e'/4d'/4(3g/4a/4g/4(3a/4b/4a/4(3g/4a/4g/4(3b/4=c'/4b/4(3c'/4d'/4c'/4(3d'/4e'/4d'/4(3^d'/4e'/4d'/4 | %88
 (3e'/4a/4g/4(3^f/4a/4g/4(3f/4a/4g/4(3f/4g/4^g/4(3a/4_b/4=b/4(3c'/4^c'/4d'/4(3e'/4f'/4e'/4(3d'/4e'/4d'/4(3=c'/4d'/4c'/4 | %89
 (3b/4d'/4c'/4(3^a/4c'/4b/4(3c'/4d'/4c'/4(3b/4c'/4b/4(3=a/4b/4a/4(3b/4c'/4b/4(3^c'/4e'/4d'/4(3e'/4f'/4e'/4(3f'/4g'/4f'/4 | %90
 (3g/4g'/4g/4(3c'/4g'/4c'/4(3b/4g'/4b/4(3c'/4g'/4d'/4(3^d'/4g'/4e'/4(3f'/4g'/4^f'/4(3g'/4a'/4f'/4(3g'/4f'/4g'/4(3^c'/4a'/4g'/4 | %91
 (3^c'/4a'/4g'/4(3c'/4f'/4e'/4(3c'/4a'/4g'/4(3c'/4a'/4g'/4(3d'/4g'/4f'/4(3a/4e'/4d'/4(3_a/4e'/4d'/4(3g/4e'/4d'/4(3g/4d'/4=c'/4 | %92
 (3g/4d'/4c'/4(3f/4c'/4b/4(3g/4d'/4c'/4(3g/4d'/4c'/4(3g/4d'/4^c'/4(3a/4e'/4d'/4(3a/4e'/4d'/4(3b/4e'/4d'/4(3c'/4d'/4g/4 | %93
 (3a/4^f/4g/4(3a/4f/4g/4(3a/4f/4g/4(3a/4f/4g/4(3a/4f/4g/4(3a/4^g/4e'/4(3b/4a/4e'/4(3c'/4b/4e'/4 z/ | %94
[K:bass] z/ [B,C-]/[A,C]/ z/ [B,C-]/[A,C]/ z/ [B,C-]/[A,C]/ | %95
 z/ [A,B,-]/[^G,B,]/ z/ [A,B,-]/[G,B,]/ z/ [A,B,-E-]/[G,B,E]/ | %96
 z/ [^G,C-E-]/[A,CE]/ z/ [G,C-E-]/[A,CE]/ z/ [B,D]/[A,C]/ | %97
 z/ [^D,^F,A,C]/-[D,F,A,C]/ z/ [=D,=F,^G,B,]/-[D,F,G,B,]/ z/ [E,A,C]/-[E,A,C]/ | %98
 z/ [F,-CD-]/[F,B,D]/ z/ [C,D,-]/[B,,D,]/ z/ [F,-CD-]/[F,B,D]/ | %99
 z/ [G,-DE-]/[G,CE]/ z/ [F,G,-]/[E,G,]/ z/ [_A,B,-D-F-]/[G,B,DF]/ | %100
 z/ [C,D,-]/[B,,D,]/ z/ [C,D,-G,-]/[B,,D,G,]/ z/[K:treble] [CD-G-]/[B,DG]/ | %101
[K:bass] z/ [B,,D,G,]/[C,E,]/ z/ [CE]/E,/ z/[K:treble] [de]/[DE]/ | %102
 [Ece]/(3c'/4d'/4b/4(3c'/4b/4a/4(3^g/4a/4b/4(3a/4b/4c'/4(3b/4c'/4d'/4(3c'/4d'/4c'/4(3b/4c'/4d'/4(3c'/4b/4a/4 | %103
 (3b/4c'/4d'/4(3c'/4b/4a/4(3^g/4a/4b/4(3g/4a/4b/4(3a/4b/4c'/4(3b/4c'/4d'/4(3b/4c'/4d'/4(3f'/4e'/4d'/4(3c'/4b/4e'/4 | %104
 (3a/4^g/4e'/4(3b/4a/4e'/4(3c'/4b/4e'/4(3d'/4c'/4e'/4(3c'/4b/4e'/4(3d'/4c'/4e'/4(3d'/4c'/4e'/4(3c'/4b/4d'/4(3b/4a/4c'/4 | %105
 (3b/4a/4c'/4(3b/4d'/4c'/4(3b/4a/4c'/4(3a/4^g/4b/4(3a/4c'/4b/4(3a/4g/4b/4(3c'/4d'/4c'/4(3b/4c'/4b/4(3c'/4d'/4c'/4 | %106
 (3d'/4e'/4^c'/4(3d'/4b/4=c'/4(3^a/4b/4=a/4(3b/4a/4c'/4(3b/4d'/4c'/4(3d'/4^c'/4_e'/4(3d'/4=e'/4d'/4(3f'/4d'/4e'/4(3^d'/4f'/4d'/4 | %107
 (3e'/4f'/4^d'/4(3e'/4^c'/4=d'/4(3b/4d'/4=c'/4(3d'/4e'/4d'/4(3e'/4f'/4e'/4(3f'/4^d'/4e'/4(3f'/4g'/4e'/4(3f'/4e'/4f'/4(3e'/4g'/4f'/4 | %108
 (3d'/4f'/4d'/4(3f'/4d'/4f'/4(3d'/4f'/4d'/4(3f'/4d'/4f'/4(3d'/4^f'/4d'/4(3f'/4d'/4f'/4(3d'/4f'/4d'/4(3g'/4d'/4g'/4(3d'/4g'/4d'/4 | %109
 (3g'/4d'/4g'/4(3f'/4g'/4d'/4(3f'/4d'/4e'/4(3g'/4f'/4e'/4(3f'/4e'/4d'/4(3f'/4e'/4c'/4(3g'/4f'/4e'/4(3f'/4e'/4d'/4(3f'/4e'/4c'/4 | %110
 (3f'/4e'/4d'/4(3e'/4d'/4b/4(3d'/4c'/4b/4(3f'/4e'/4d'/4(3e'/4d'/4b/4(3d'/4c'/4b/4(3f'/4e'/4d'/4(3e'/4d'/4b/4(3d'/4c'/4b/4 | %111
 (3g'/4f'/4e'/4(3f'/4e'/4d'/4(3f'/4e'/4c'/4 z z/ (3g/4f/4e/4(3f/4e/4d/4(3f/4e/4c/4 | %112
 (3f/4e/4d/4(3e/4d/4B/4(3d/4c/4B/4(3f/4e/4d/4(3e/4d/4B/4(3d/4c/4B/4(3f/4e/4d/4(3e/4d/4B/4(3d/4c/4B/4 | %113
 z z/ [ce]3/2[ce]3/2- | [ce]3/2[ec'e']3/2[ec'e']3/2 | [ec'e']3/2[fd'f']3/2[dbd'] z/ | z9/2 | z9/2 | %118
 z/ (3e'/4c'/4e/4(3e'/4^c'/4e/4 z/ (3f'/4c'/4f/4(3f'/4d'/4f/4(3e'/4c'/4e/4(3f'/4d'/4f/4(3d'/4b/4d/4 | %119
 z9/2 | z3 ag/ | g3 _ag/ | g3/2g3/2g3/2 | g3/2_a3/2a3/2 | _a3/2a3/2a3/2 | %125
 b/8_a/8b/8a/8b/8a/8b/8a/8b/8a/8b/8a/8b/8a/8b/8a/8b/8a/8b/8a/8b/8a/8b/8a/8b/8a/8b/8a/8b/8a/8b/8a/8b/8a/8b/8a/8 | %126
 b/8_a/8b/8a/8b/8a/8b/8a/8b/8a/8b/8a/8b/8a/8b/8a/8b/8a/8b/8a/8b/8a/8b/8a/8b/8a/8b/8a/8b/8a/8b/8a/8b/8a/8b/8a/8 | %127
 _b/8_a/8b/8a/8b/8a/8b/8a/8b/8a/8b/8a/8b/8=a/8b/8a/8b/8a/8b/8a/8b/8a/8b/8a/8c'/8b/8c'/8b/8c'/8b/8c'/8b/8c'/8b/8c'/8b/8 | %128
 c'/8_b/8c'/8b/8c'/8b/8c'/8b/8c'/8b/8c'/8b/8c'/8=b/8c'/8b/8c'/8b/8c'/8b/8c'/8b/8c'/8b/8_d'/8c'/8d'/8c'/8d'/8c'/8d'/8c'/8d'/8c'/8d'/8c'/8 || %129
[K:Eb] _d'/8c'/8d'/8c'/8d'/8c'/8d'/8c'/8d'/8c'/8d'/8c'/8=d'/8^c'/8d'/8c'/8d'/8c'/8d'/8c'/8d'/8c'/8d'/8c'/8e'/8d'/8e'/8d'/8e'/8d'/8e'/8d'/8e'/8d'/8e'/8d'/8 | %130
 e'/8d'/8e'/8d'/8e'/8d'/8e'/8d'/8e'/8d'/8e'/8d'/8e'/8d'/8e'/8d'/8e'/8d'/8e'/8d'/8e'/8d'/8e'/8d'/8e'/8d'/8e'/8d'/8e'/8d'/8e'/8d'/8e'/8d'/8c'/8d'/8 | %131
 e'3/2g'3/2b'3/2- | b'=a'/_a'/a/[Bg]/[c-g]/[cf]/[ce]/ | e/d z/ e z/ f/B/ | B z/ z z2 | %135
 z/ =B z/ c z/ d/G/ | G z/ z z2 | z/ G z/ A z/ B/E/ | EE/ E/=A/D/ DD/ | _D/G/C/ CC/ _C/A/B,/ | %140
 B,B,/ B,/E/=A,/ A,D/ |[K:bass] D/D/G,/ G,/G,/C/ C/C/F,/ | F,/F,/B,/ B,/B,/E,/ E,/E,/C/ | %143
[M:6/16][K:treble] E/E/c/c/c/=B/ |[K:C][M:3/16] cG/ |[M:9/16]"^Variation V" G3 dG/ | %146
"^Variation V" G3 G3/2 | G3/2e3/2c3/2 | c3/2B3/2B3/2 | c3/2e3/2g3/2 | g3/2f3/2 dc/ | B3/2c3/2 dG/ | %152
 G3/2-GE/EE/ | c3 cB/ | B3 Be/ | e3/2e3/2dc/ | c3/2B3/2c3/2 | d3 d3/2 | e3 f3/2 | d3/2d3/2dg/ | %160
 ge<eec/ | c3/2c'a<a | af<ff3/2 | [df]3 f3/2 | e3/2g>gf/d/ | %165
 c3/2ed/(9:6:9B/4d/4b/4B/4d/4g/4c/4g/4c'/4 | %166
 (9:6:9c/4g/4c'/4B/4g/4b/4c/4g/4c'/4(9:6:9^g/4b/4^g'/4g/4b/4e'/4a/4e'/4a'/4(9:6:9a/4e'/4a'/4g/4e'/4g'/4a/4e'/4a'/4 | %167
 (9:6:9e/4g/4e'/4e/4g/4c'/4f/4c'/4f'/4(9:6:9f/4c'/4f'/4e/4c'/4e'/4f/4c'/4f'/4a'f'/ | %168
 f'3/2f'3/2f'3/2 | f'3 f'3/2 | ^f'3 f'3/2 | g'3/2f'3/2g'a'/ | a'->a'a'/g'/g'/f'/e'/ | %173
 [c'e'][e'g']/[^d'^f'][=d'=f']/[be']/[bf']/[bd']/ | %174
 d'/8e'/8d'/8e'/8d'/8e'/8d'/8e'/8d'/8^c'/8d'/8^f'/8g'/8a'/8g'/8a'/8g'/8a'/8g'/8a'/8g'/8a'/8g'/8a'/8g'/8a'/8g'/8a'/8g'/8a'/8g'/8a'/8g'/8a'/8g'/8a'/8 | %175
 g'/8a'/8g'/8a'/8g'/8a'/8g'/8a'/8g'/8a'/8g'/8a'/8g'/8a'/8g'/8a'/8g'/8a'/8g'/8a'/8g'/8a'/8g'/8 z/8 a'/8g'/8a'/8g'/8a'/8g'/8a'/8g'/8a'/8g'/8a'/8g'/8 | %176
 a'/8g'/8a'/8g'/8a'/8g'/8a'/8g'/8a'/8g'/8a'/8g'/8a'/8g'/8a'/8g'/8a'/8g'/8a'/8g'/8a'/8g'/8a'/8g'/8a'/8g'/8a'/8g'/8a'/8g'/8a'/8g'/8a'/8g'/8a'/8g'/8 | %177
 a'/8g'/8a'/8g'/8a'/8g'/8a'/8g'/8a'/8g'/8a'/8g'/8a'/8g'/8a'/8g'/8a'/8g'/8a'/8g'/8a'/8g'/8a'/8g'/8a'/8g'/8a'/8g'/8a'/8g'/8a'/8g'/8a'/8g'/8a'/8g'/8 | %178
 a'/8g'/8a'/8g'/8a'/8g'/8a'/8g'/8a'/8g'/8a'/8g'/8a'/8g'/8a'/8g'/8a'/8g'/8a'/8g'/8a'/8g'/8a'/8g'/8a'/8g'/8a'/8g'/8a'/8g'/8a'/8g'/8a'/8g'/8a'/8g'/8 | %179
 a'/8g'/8a'/8g'/8a'/8g'/8a'/8g'/8a'/8g'/8a'/8g'/8a'/8g'/8a'/8g'/8a'/8g'/8a'/8g'/8a'/8g'/8a'/8g'/8b/8c'/8b/8c'/8b/8c'/8b/8c'/8b/8c'/8b/8c'/8 | %180
 b/8c'/8b/8c'/8b/8c'/8b/8c'/8b/8c'/8b/8c'/8b/8c'/8b/8c'/8b/8c'/8b/8c'/8b/8c'/8b/8c'/8b/8c'/8b/8c'/8b/8c'/8b/8c'/8b/8c'/8b/8c'/8 | %181
 b/8c'/8b/8c'/8b/8c'/8b/8c'/8b/8c'/8b/8c'/8b/8c'/8b/8c'/8b/8c'/8b/8c'/8b/8c'/8b/8c'/8b/8c'/8b/8c'/8b/8c'/8b/8c'/8b/8c'/8b/8c'/8 | %182
 b/8c'/8b/8c'/8b/8c'/8b/8c'/8b/8c'/8b/8c'/8b/8c'/8b/8c'/8b/8c'/8b/8c'/8b/8c'/8b/8c'/8b/8c'/8b/8c'/8b/8c'/8b/8c'/8b/8c'/8b/8c'/8 | %183
 b/8c'/8b/8c'/8b/8c'/8b/8c'/8b/8c'/8b/8c'/8b/8c'/8b/8c'/8b/8c'/8b/8c'/8b/8c'/8b/8c'/8b/8c'/8b/8c'/8b/8c'/8b/8c'/8b/8c'/8b/8c'/8 | %184
 b/8c'/8b/8c'/8b/8c'/8b/8c'/8b/8c'/8b/8c'/8b/8c'/8b/8c'/8b/8c'/8b/8c'/8b/8c'/8b/8c'/8b/8c'/8b/8c'/8b/8c'/8b/8c'/8b/8c'/8b/8c'/8 | %185
 b/8c'/8b/8c'/8b/8c'/8b/8c'/8b/8c'/8b/8c'/8b/8c'/8b/8c'/8b/8c'/8b/8c'/8b/8c'/8b/8c'/8b/8c'/8b/8c'/8b/8c'/8b/8c'/8b/8c'/8b/8c'/8 | %186
 (9:6:9g/4a/4g/4^f/4g/4a/4b/4c'/4a/4(9:6:9b/4c'/4b/4a/4b/4c'/4d'/4e'/4c'/4(9:6:9d'/4e'/4d'/4^c'/4d'/4e'/4f'/4g'/4e'/4 | %187
 (9:6:9f'/4g'/4f'/4e'/4f'/4e'/4d'/4e'/4d'/4(9:6:9c'/4d'/4c'/4b/4c'/4b/4c'/4d'/4c'/4(9:6:9d'/4e'/4d'/4e'/4f'/4g'/4a'/4g'/4b'/4 | %188
 (9:6:9c''/4b'/4a'/4g'/4f'/4e'/4d'/4c'/4b/4(9:6:9c'/4b/4a/4g/4f/4e/4d/4c/4B/4(9:6:9c/4B/4A/4G/4F/4E/4D/4C/4B,/4 | %189
 CG,/ G,3/2 fG/ | f'b/[dfd'][cec']/[cec'] z/ | [cec'] z/ [E,G,C] z/ z z/ |] %192
V:2
 E3/2 | E3/2F3/2D3/2 | D3/2E3/2F3/2 | z3/2 E3/2G3/2 | E3/2D3/2D3/2 | G3 G3/2 | A3 A[DA]/ | %7
 [DG]3/2[CG]3/2[DG][DG]/ |1 DD/[CE][B,F]/ :|2 D[CE]/[B,F][CE]/ E3/2 |: E3 E3/2 | E3 z z/ | %12
 B3/2c3/2BA/ | A3/2^G3/2[EA]3/2 | [GB]3 [GB]3/2 | [Gc]3 [Ac]3/2 | [GB]3/2[GB]3/2[GB][Bd]/ |1 %17
 [Bd][Gc]/ [Gc]3/2 E3/2 :|2 [Bd][Gc]/ [Gc]3/2 z3/2 |: z9/2 | z9/2 | z9/2 | _ED/ CB,/ CD/ | %23
 z z z _BE/ | AG/ AA/ A^F/ | [DF]3/2[DF]3/2- [DF]/[DF]/[DF]/ |1 [DF]/E/D/ C/D/B,/ z z/ :|2 %27
 [DF]/E/F/ E/[DE]/[CE]/ [B,E]/[CE]/D/ || z C/ |: [B,D]3/2 z C/ | z B,/ C2 E/B/- | %31
 B/B/c/c^G/G/A/A/- | A/^G/G/- G/E/E/ E/B/B/ | BF/ EF/ BF/ | _BE/ [G=B][Be]/ A3/2 | %35
 [FB]3/2[FB]3/2Bd/ |1 d/B/c/c/c/E/F/E/E/ | z C/ :|2 d/B/c/- c/-c/c/ |:[M:6/16] z | %40
 (3:2:2G/E/4(3:2:2D/E/4(3:2:2F/D/4(3:2:2^C/D/4 z | z3 | z GG | %43
 (3:2:2E/D/4(3:2:2F/E/4(3:2:2E/^C/4(3:2:2E/D/4D | GE/G/(3:2:2d/^c/4(3:2:2e/d/4 | %45
 (3:2:2^c/B/4(3:2:2d/c/4A/A/A/A/ | A/D/(3:2:2G/E/4(3:2:2G/F/4-(3:2:2F/D/4(3:2:2[F_A]/[DF]/4 |1 %47
 (3:2:2[DF]/D/4(3:2:2B,/C/4(3:2:2D/C/4(3:2:2F/E/4 :|2 %48
 (3:2:2[DF]/D/4(3:2:2[B,F]/[CE]/4(3:2:2E/[DE]/4(3:2:2[CE]/[B,E]/4-(3:2:2[B,E]/[B,D]/4(3:2:2[A,C]/[^G,D]/4 |: %49
 (3:2:2C/^D/4E/-(3:2:2E/D/4E/-(3:2:2E/D/4E/- | (3:2:2E/F/4E/-(3:2:2E/F/4E/-(3:2:2E/F/4E/ | %51
 B/-(3:2:2B/c/4c/(3:2:2c/[^GB]/4(3:2:2[EB]/[FA]/4(3:2:2[^FA]/[B,=G]/4 | %52
 (3:2:2[B,^G]/[B,G]/4-(3:2:2[B,G]/[B,G]/4-(3:2:2[B,G]/[CA]/4-(3:2:2[CA]/[CA]/4-(3:2:2[CA]/[DB]/4-(3:2:2[DB]/[db]/4 | %53
 (3:2:2d/d/4(3:2:2^c/d/4(3:2:2d/B/4(3:2:2^A/B/4G/G/- | %54
 (3:2:2G/c/4(3:2:2B/c/4(3:2:2c/_B/4(3:2:2A/B/4-B/(3:2:2B/A/4 | %55
 (3:2:2A/c/4d/-(3:2:2d/^d/4e/-(3:2:2e/f/4(3:2:2[Bf]/[B=d]/4 |1 %56
 (3:2:2[Bd]/B/4(3:2:2c/d/4(3:2:2e/ z/4 z/ z :| %57
[M:4/16] (3:2:2[Bd]/B/4(3:2:2c/d/4(3:2:2G/d/4(3:2:2e/f/4 |:[M:2/16] z | %59
 E/4-(3:2:2E/4E/8-E/4-(3:2:2E/4E/8F/4-(3:2:2F/4F/8-F/4-(3:2:2F/4F/8 z | %60
 F/4-(3:2:2F/4F/8-F/4-(3:2:2F/4F/8 z2 | z3 | z3 | z3 | z3 | z3 |1 %66
[M:4/16] (3:2:2d/4e/8(3:2:2f/4[df]/8(3:2:2B/4c/8(3:2:2d/4c/8(3:2:2d/4e/8(3:2:2f/4e/8 z/ :|2 %67
[M:6/16] (3:2:2d/4e/8(3:2:2f/4[df]/8(3:2:2B/4c/8(3:2:2d/4c/8(3:2:2d/4e/8(3:2:2f/4e/8(3:2:2f/4d/8(3:2:2f/4e/8(3:2:2d/4c/8(3:2:2B/4 z/8 (3:2:2B,/4C/8(3:2:2D/4C/8 |: %68
 E/4-(3:2:2E/4E/8-E/4-(3:2:2E/4D/8 z2 | z3 | z3 | %71
 (3:2:2c/4B/8(3:2:2a/4^g/8d/-(3:2:2d/4c/8(3:2:2b/4a/8 e/- (3:2:2e/8d/4(3:2:2c'/4b/8f/4-(3:2:2f/4f/8 | %72
 z3 | z/ z/ z/ (3:2:2G/4E/8(3:2:2F/4G/8A/-(3:2:2A/4F/8(3:2:2G/4A/8 | %74
 (3:2:2B/4^A/8(3:2:2B/4c/8B/G/-(3:2:2G/4=A/8(3:2:2B/4c/8B/ (3:2:2z/4 e/8(3:2:2d/4c/8 |1 %75
 (3:2:2d/4d/8-(3:2:2d/4d/8-(3:2:2[Gd]/4G/8-(3:2:2G/4G/8-(3:2:2G/4G/8-(3:2:2G/4d/8 z/ z :|2 %76
 (3:2:2d/4d/8-(3:2:2d/4d/8-(3:2:2d/4G/8-(3:2:2G/4G/8-(3:2:2G/4C/8(3:2:2B,/4A,/8(3:2:2G,/4A,/8(3:2:2G,/4F,/8 || %77
[M:9/16] z3/2 | z9/2 | z9/2 | z9/2 | z9/2 | z9/2 | z9/2 | z9/2 | z9/2 | z9/2 | z9/2 | z9/2 | z9/2 | %90
 z9/2 | z9/2 | z9/2 | z9/2 | z9/2 | z9/2 | z9/2 | z9/2 | z9/2 | z9/2 | z9/2 | z9/2 | z9/2 | z9/2 | %104
 z9/2 | z9/2 | z9/2 | z9/2 | z9/2 | z9/2 | z9/2 | z9/2 | z9/2 | z9/2 | z9/2 | %115
[K:bass] z z z z (3G,,,/4A,,,/4B,,,/4 | %116
 (3C,,/4E,,/4G,,/4(3C,/4E,/4G,/4[K:treble](3C/4E/4G/4(3c/4e/4g/4(3e/4g/4c'/4e'/-(3e'/4b/4c'/4(3d'/4b/4c'/4(3e'/4b/4c'/4 | %117
[K:bass] (3A,,,/4C,,/4E,,/4(3A,,/4C,/4E,/4(3A,/4C/4E/4[K:treble](3A/4c/4e/4(3c/4e/4a/4e/8a/8c'/8e'/8-(3e'/4b/4c'/4(3e/4b/4c'/4(3e'/4b/4c'/4 | %118
 z9/2 | %119
 z/8 ^c/8d/8e/8d/8e/8d/8e/8d/8e/8d/8e/8d/8e/8d/8e/8d/8e/8d/8e/8d/8e/8d/8e/8d/8e/8d/8e/8d/8e/8d/8e/8d/8e/8d/8e/8 | %120
 d/8e/8d/8e/8d/8e/8d/8e/8d/8e/8d/8e/8d/8e/8d/8e/8d/8e/8d/8e/8d/8e/8d/8e/8d/8e/8d/8e/8d/8e/8d/8e/8d/8e/8d/8e/8 | %121
 d/8e/8d/8e/8d/8e/8d/8e/8d/8e/8d/8e/8d/8_e/8d/8e/8d/8e/8d/8e/8d/8e/8d/8e/8d/8e/8d/8e/8d/8e/8d/8e/8d/8e/8d/8e/8 | %122
 d/8_e/8d/8e/8d/8e/8d/8e/8d/8e/8d/8e/8d/8e/8d/8e/8d/8e/8d/8e/8d/8e/8d/8e/8d/8e/8d/8e/8d/8e/8d/8e/8d/8e/8d/8e/8 | %123
 d/8_e/8d/8e/8d/8e/8d/8e/8d/8e/8d/8e/8d/8e/8d/8e/8d/8e/8d/8e/8d/8e/8d/8e/8d/8e/8d/8e/8d/8e/8d/8e/8d/8e/8d/8e/8 | %124
 d/8_e/8d/8e/8d/8e/8d/8e/8d/8e/8d/8e/8d/8e/8d/8e/8d/8e/8d/8e/8d/8e/8d/8e/8d/8e/8d/8e/8d/8e/8d/8e/8d/8e/8d/8e/8 | %125
 d/8_e/8d/8e/8d/8e/8d/8e/8d/8e/8d/8e/8d/8e/8d/8e/8d/8e/8d/8e/8d/8e/8d/8e/8d/8e/8d/8e/8d/8e/8d/8e/8d/8e/8d/8e/8 | %126
 d/8_e/8d/8e/8d/8e/8d/8e/8d/8e/8d/8e/8d/8e/8d/8e/8d/8e/8d/8e/8d/8e/8d/8e/8d/8e/8d/8e/8d/8e/8d/8e/8d/8e/8d/8e/8 | %127
 z9/2 | z9/2 ||[K:Eb] z9/2 | z9/2 | z9/2 | z9/2 | [FA]/[FA]/[FA]/[FA]/[FA]/[FA]/[FA]/[FA]/[FA]/ | %134
 G/G/G/G/G/G/[EG]/[EG]/[EG]/ | [FG]/[FG]/[FG]/[FG]/[FG]/[FG]/[FG]/[FG]/F/ | %136
 E/E/E/E/E/E/[CE]/[CE]/[CE]/ | [_DE]/[DE]/[DE]/[DE]/[DE]/[DE]/[DE]/[DE]/[DE]/ | %138
 _D/C/C/ C/[C=D]/C/ C/=B,/B,/ | B,/[B,_D]/B,/B,/=A,/A,/_A,/[A,B,]/[A,B,]/ | %140
 A,/G,/G,/G,/G,/G,/G,/^F,/[F,=A,]/ |[K:bass] [F,A,]/[F,G,]/F,/F,/[E,G,]/[E,G,]/[E,_G,]/[E,F,]/E,/ | %142
 E,/[_D,F,]/[D,F,]/[D,E,]/[D,E,]/D,/C,/C,/E,/ |[M:6/16][K:treble] C/C/E/D/D/D/ | %144
[K:C][M:3/16] [CE]/[CE]/[CE]/ |[M:9/16] E/D/E/F/E/F/D/C/[DF]/ | D/E/D/E/F/E/F/E/F/ | %147
 C/B,/C/E/D/E/G/F/E/ | E/^D/E/=D/D/D/[DG]/[DG]/[DG]/ | G/^F/G/E/G/G/d/^c/d/ | %150
 ^c/B/c/d/c/d/F/F/^F/ | G/A/G/^F/G/F/=F/F/F/ | [DF]/[CE]/[B,F]/[B,F]/[CE]/D/D/C/B,/ | %153
 [CE]/E/E/E/E/E/E/E/E/ | E/E/E/E/E/E/E/E/[EB]/ | [EB]/[EB]/[EB]/[Ec]/[Ec]/[Ec]/B/^G/A/ | %156
 [EA]/[EA]/[EA]/[E^G]/[EG]/[EG]/[EA]/[EA]/[EA]/ | [GB]/[GB]/[GB]/[GB]/[GB]/[GB]/[FB]/[FB]/[FB]/ | %158
 [E_B]/[EB]/[EB]/[EB]/[EB]/[EB]/[FA]/[Ac]/[_Ac]/ | [Gc]/[Gc]/[Gc]/[Gc]/[Gc]/[Gc]/[GB]/[Gc]/[Gd]/ | %160
 d/B/G/E/^D/E/B/^G/E/ | E/E/E/g/e/c/c/[^cg]/[df]/ | e/^c/A/A/A/A/_A/A/A/ | %163
 G/G/G/G/G/G/[GB]/[Gc]/[Gd]/ | G/G/G/[G_B]/[GB]/[GB]/A/A/[Ac]/ | %165
 [EG]/[EG]/[EG]/[FG]/[FG]/[FG]/ z z/ | z4 z/ | z3/2 z3/2 e'/^c'/a/ | %168
 a/a/a/[ad']/[ad']/[ad']/[_ad']/[ad']/[ad']/ | %169
 [gd']/[gd']/[gd']/[gd']/[gd']/[gd']/[gd']/[gd']/[gd']/ | %170
 [c'd']/[c'd']/[c'd']/[c'd']/[c'd']/[c'd']/[c'd']/[c'd']/[c'd']/ | %171
 [c'e']/[gc'e']/[gc'e']/[gb]/[gb]/[gb]/[gb]/[gb]/[gb]/ | %172
 [gb]/[gb]/[gb]/[gb]/[gb]/[gc']/[gc']/[gc']/[gc']/ | [gc']/g/g/g/g/g/g/g/g/ | d'3/2 g'3 | z3 c'g/ | %176
 g3 d'g/ | g3 g3/2 | g3/2e'3/2c'3/2 | c'3/2b3/2b3/2 | e'3/2e'3/2g'3/2 | g'3/2f'3/2d'c'/ | %182
 b3/2c'3/2d'g/ | z3/2 z3/2 dG/ | G3/2Gg<g | g/ z3/2 z/ c/ ^c/d/G/ | %186
 z3/2 (9:6:9g/4a/4g/4^f/4g/4a/4b/4c'/4a/4(9:6:9b/4c'/4b/4^a/4b/4c'/4d'/4e'/4^c'/4 | %187
 (9:6:9d'/4e'/4d'/4c'/4d'/4c'/4b/4c'/4b/4(9:6:9a/4b/4a/4g/4a/4g/4a/4b/4a/4(9:6:9b/4c'/4b/4c'/4d'/4e'/4f'/4e'/4d'/4 | %188
 (9:6:9e'/4d'/4c'/4b/4a/4g/4f/4e/4d/4(9:6:9e/4d/4c/4B/4A/4G/4F/4E/4D/4(9:6:9E/4D/4C/4B,/4A,/4G,/4F,/4E,/4D,/4 | %189
[K:bass] z3/2 C,,G,,,<G,,, | G,,,>G,,,[G,,,G,,]/[C,,C,]/ z/ [G,,G,]/[C,C]/ | %191
 z/ [G,,,G,,]/[C,,C,]/[C,,C,] z2 |] %192
V:3
 G,,3/2 | G,,3/2G,,3/2G,,3/2 | G,,3/2G,,3/2G,,3/2 | G,,3/2G,,3/2G,,3/2 | G,,,3/2G,,3/2- G,,F,,/ | %5
 E,,3 E,,3/2 | D,,3 F,,^F,,/ | G,,3/2A,,3/2B,,B,,/ |1 B,,B,,/C,D,/ :|2 B,,C,/D,C,<E, |: %10
 A,,3/2E,3/2E,3/2 | ^G,,3/2E,3/2E,3/2 | E,3/2E,3/2E,3/2 | E,,3/2E,3/2A,,3/2 | G,,3 G,,3/2 | %15
 C,3 F,,3/2 | G,,3/2G,,3/2G,,G,,/ |1 G,,C,/ C,3/2 E,3/2 :|2 G,,C,/C,/G,/F,/E,/C,/G,/- |: %19
 G,/^C,/G,/- G,/D,/G,/- G,/^A,,/G,/- | G,/B,,/G,/- G,/C,/G,/ E,/D,/G,/- | %21
 G,/^D,/E,/ G,/C,/G,/- G,/E,/G,/- | G,/^F,,/G,/- G,/G,,/G,/- G,/=F,,/G,/- | %23
 G,/E,,/G,/- G,/C,,/E,/- E,/C,,/E,/- | E,/^C,,/E,/ E,/D,,/F,/ ^F,/^F,,/A,/ | %25
 _A,/G,,/G,/ =A,/G,,/_B,/- B,/=B,/B,/ |1 B,/C/F,/ E,/F,/D,/ E,/C,/G,/ :|2 %27
 B,/C/D/C/B,/A,/^G,/A,/B,/ || A,/A,,/E,/- |: E,/^G,,/E,/-E,/A,,/E,/ | z9/2 | z9/2 | z9/2 | z9/2 | %34
 z9/2 | z9/2 |1 z9/2 | z3/2 :|2 z3 |:[M:6/16] z | z3 | (3:2:2F,/D,/4(3:2:2^C,/D,/4 z2 | %42
 ^D,/E,/(3:2:2=D,/B,,/4(3:2:2D,/C,/4(3:2:2F,/^D,/4(3:2:2F,/E,/4 | %43
 G, G,,(3:2:2F,,/E,,/4(3:2:2G,,/F,,/4 | %44
 (3:2:2E,,/D,,/4(3:2:2F,,/E,,/4(3:2:2C,,/B,,,/4(3:2:2D,,/C,,/4(3:2:2_B,,,/A,,,/4(3:2:2C,,/B,,,/4 | %45
 A,,,/A,,/D,,/D,/F,,/^F,,/- | (3:2:2F,,/^F,,/4(3:2:2A,,/G,,/4A,,/_B,,/B,,/=B,,/- |1 B,,/ z/ z :|2 %48
 B,,/ z/ z2 |: (3:2:2A,,/^D,/4E,/-(3:2:2E,/D,/4E,/-(3:2:2E,/D,/4E,/- | %50
 (3:2:2E,/F,/4E,/-(3:2:2E,/F,/4E,/-(3:2:2E,/F,/4E,/ | z3 | z3 | %53
 (3:2:2z/ F/4(3:2:2E/F/4(3:2:2F/D/4(3:2:2^C/D/4B,/(3:2:2D/C/4 | %54
 (3:2:2C/E/4(3:2:2D/E/4(3:2:2E/G/4(3:2:2^F/G/4-(3:2:2G/G/4(3:2:2E/=F/4 | %55
 C/(3:2:2C/B,/4-(3:2:2B,/B,/4C/(3:2:2^C/D/4(3:2:2[DF]/[DF]/4 |1 %56
 (3:2:2[DF]/G,/4(3:2:2A,/B,/4(3:2:2C/B,/4(3:2:2C/D/4(3:2:2C/B,/4(3:2:2A,/^G,/4 :| %57
[M:4/16] (3:2:2[DF]/ z/4 z/ z |:[M:2/16] z | z3 | z3 | z3 | z3 | z3 | z3 | z3 |1[M:4/16] z2 :|2 %67
[M:6/16] z3 |: z3 | z3 | z3 | z3 | z3 | z3 | z3 |1 z3 :|2 z2 ||[M:9/16] z3/2 | z9/2 | z9/2 | z9/2 | %81
 z9/2 | z9/2 | z9/2 | z9/2 | z9/2 | z9/2 | z9/2 | z9/2 | z9/2 | z9/2 | z9/2 | z9/2 | z9/2 | z9/2 | %95
 z9/2 | z9/2 | z9/2 | z9/2 | z9/2 | z9/2 | z9/2 | z9/2 | z9/2 | z9/2 | z9/2 | z9/2 | z9/2 | z9/2 | %109
 z9/2 | z9/2 | z9/2 | z9/2 | z9/2 | z9/2 | z9/2 | z9/2 | z9/2 | z9/2 | z9/2 | z9/2 | z9/2 | z9/2 | %123
 z9/2 | z9/2 | %125
[K:treble] F/8G/8F/8G/8F/8G/8F/8G/8F/8G/8F/8G/8F/8G/8F/8G/8F/8G/8F/8G/8F/8G/8F/8G/8F/8G/8F/8G/8F/8G/8F/8G/8F/8G/8F/8G/8 | %126
 F/8G/8F/8G/8F/8G/8F/8G/8F/8G/8F/8G/8F/8G/8F/8G/8F/8G/8F/8G/8F/8G/8F/8G/8F/8G/8F/8G/8F/8G/8F/8G/8F/8G/8F/8G/8 | %127
 F/8G/8F/8G/8F/8G/8F/8G/8F/8G/8F/8G/8 z z2 | z9/2 ||[K:Eb] z9/2 | z9/2 | z9/2 | z9/2 | z4 z/ | %134
 z7/2 z | z3 z3/2 | z3 z3/2 | z2 z3 | z9/2 | z/ =e z/ f z/ d | z9/2 | z/ B z/ c z/ A | %142
[K:bass] z9/2 |[M:6/16] z3 |[K:C][M:3/16] z z/ x/ |[M:9/16] z4 z/ | z4 z/ | z4 z/ | z4 z/ | z4 z/ | %150
 z4 z/ | z4 z/ | z4 z/ | z4 z/ | z7/2 z | z4 z/ | z7/2 z | z4 z/ | z7/2 z | z4 z/ | z7/2 z | %161
 z4 z/ | z7/2 z | z4 z/ | z7/2 z | z z z GE/ | E3/2EC<C | CA,<A, z z/ | z4 z/ | z4 z/ | z7/2 z | %171
 z4 z/ | z7/2 z | z4 z/ | z4 z/ | z4 z/ | z7/2 z | z4 z/ | z7/2 z | z4 z/ | z7/2 z | z4 z/ | %182
 z7/2 z | z4 z/ | z4 z/ | z4 z/ | z4 z/ | z4 z/ | z7/2 z | z3 z3/2 | z3 z3/2 | z4 z/ |] %192
V:4
 C,,3/2 | C,,3/2D,,3/2B,,,3/2 | B,,,3/2C,,3/2D,,3/2 | E,,3/2C,,3/2E,,3/2 | G,,,3 G,,,F,,,/ | %5
 E,,,3 E,,,3/2 | D,,,3 F,,,^F,,,/ | G,,,3 z z/ |1 z3 :|2 z3 z3/2 |: A,,3 A,,3/2 | ^G,,3 G,,3/2 | %12
 ^G,,3/2A,,3/2A,,3/2 | E,,3 A,,,3/2 | G,,,3 G,,,3/2 | C,,3 F,,,3/2 | G,,,3/2G,,,3/2G,,,G,,,/ |1 %17
 G,,,C,,/ C,,3/2 E,3/2 :|2 G,,,C,,/ C,,/ z z3/2 |: z9/2 | z9/2 | z9/2 | z9/2 | z9/2 | z9/2 | %25
 z9/2 |1 z9/2 :|2 z9/2 || z3/2 |: z3 | E,/^G,,/E,/-E,/A,,/E,/-E,/G,,/^G,/- | %31
 G,/^G,/A,/- A,/A,/B,/- B,/C/D/ | ^D/E/E/- E/A,/A,/- A,/G,/G,/- | %33
 G,/G,,/G,/- G,/G,,/G,/- G,/G,,/G,/- | G,/C,,/C,/-C,/C,,/C,/-C,/F,,,/F,,/ | %35
 G,,/G,,,/G,,/-G,,/G,,,/G,,/-G,,/G,,,/B,,/ |1 B,,/G,,/C,/- C,/-C,/E,/ F,/E,/E,/ | E,/A,,/E,/- :|2 %38
 B,,/G,,/C,/- C,C,/ |:[M:6/16] (3:2:2C/G,/4(3:2:2^F,/G,/4 | %40
 G,/G,/-G,/G,/(3:2:2D,/G,,/4(3:2:2^F,,/G,,/4 | A,,/B,,/-B,,/C,/^C,/D,/ | z3 | G, G,, z | z3 | z3 | %46
 z G,,-G,,/G,,/- |1 (3:2:2G,,/A,,/4(3:2:2D,/E,/4(3:2:2F,/E,/4(3:2:2D,/C,/4 :|2 %48
 (3:2:2G,,/B,,/4(3:2:2D,/C,/4(3:2:2C,/B,,/4(3:2:2A,,/^G,,/4-(3:2:2G,,/G,,/4(3:2:2A,,/B,,/4 |: %49
 A,,/-(3:2:2A,,/^G,,/4A,,/-(3:2:2A,,/G,,/4A,,/-(3:2:2A,,/G,,/4 | %50
 ^G,,/-(3:2:2G,,/A,,/4G,,/-(3:2:2G,,/A,,/4G,,/-(3:2:2G,,/G,,/4 | %51
 (3:2:2^G,,/[^G,,,G,,]/4[A,,,A,,]/-(3:2:2[A,,,A,,]/[A,,,A,,]/4[B,,,B,,]/(3:2:2[C,,C,]/[D,,D,]/4(3:2:2[^D,,^D,]/[E,,E,]/4 | %52
 (3:2:2[E,,E,]/[E,,E,]/4-(3:2:2[E,,E,]/[E,,E,]/4-(3:2:2[E,,E,]/[A,,,A,,]/4-(3:2:2[A,,,A,,]/[A,,,A,,]/4-(3:2:2[A,,,A,,]/[G,,,G,,]/4-(3:2:2[G,,,G,,]/[G,,,G,,]/4 | %53
 [G,,,G,,]/ G,/-G,-G,/G,/ | G,/C/-C/C/-C/F,/ | %55
 (3:2:2^F,/A,/4(3:2:2F,/G,/4-G,/G,/-G,/(3:2:2G,/G,/4 |1 %56
 (3:2:2G,/G,,/4(3:2:2A,,/B,,/4(3:2:2C,/D,/4(3:2:2E,/F,/4(3:2:2E,/D,/4(3:2:2C,/B,,/4 :| %57
[M:4/16] (3:2:2G,/[G,,G,]/4(3:2:2[A,,A,]/[B,,B,]/4(3:2:2[C,C]/[K:treble]G/4(3:2:2A/B/4 |: %58
[M:2/16][K:bass] z | %59
 (3:2:2C,,/4E,,/8(3:2:2G,,/4C,/8(3:2:2E,/4G,/8(3:2:2B,/4C/8(3:2:2D,,/4G,,/8(3:2:2B,,/4D,/8(3:2:2G,/4B,/8(3:2:2^C/4D/8 z | %60
 (3:2:2D,,/4G,,/8(3:2:2B,,/4D,/8(3:2:2G,/4B,/8(3:2:2^C/4D/8(3:2:2E,,/4G,,/8(3:2:2C,/4E,/8(3:2:2G,/4=C/8(3:2:2^D/4E/8 z | %61
 (3:2:2E,,/4_B,,/8(3:2:2^C,/4E,/8(3:2:2F,/4B,/8(3:2:2D/4F/8(3:2:2^D,/4G,/8(3:2:2B,/4^D/8(3:2:2E,/4G,/8(3:2:2C/4E/8(3:2:2C,/4E,/8(3:2:2G,/4C/8(3:2:2C,,/4E,,/8(3:2:2G,,/4C,/8 | %62
 [G,,,G,,]/4-(3:2:2[G,,,G,,]/4[G,,,G,,]/8-[G,,,G,,]/4-(3:2:2[G,,,G,,]/4[G,,,G,,]/8-[G,,,G,,]/4-(3:2:2[G,,,G,,]/4[G,,,G,,]/8-[G,,,G,,]/4-(3:2:2[G,,,G,,]/4[F,,,F,,]/8(3:2:2F,,,/4B,,,/8(3:2:2D,,/4F,,/8(3:2:2B,,/4D,/8(3:2:2E,/4F,/8 | %63
 [E,,E,]/4 z/4 z/4 (3:2:2G/4E/8(3:2:2C/4G,/8(3:2:2E,/4C,/8(3:2:2E/4C/8(3:2:2G,/4E,/8(3:2:2E/4C/8(3:2:2G,/4E,/8(3:2:2C/4G,/8(3:2:2E,/4C,/8 | %64
 (3:2:2A,/4G,/8(3:2:2E,/4^C,/8(3:2:2A,,/4G,/8(3:2:2E,/4C,/8(3:2:2A,/4F,/8(3:2:2D,/4F,/8(3:2:2D,/4D/8(3:2:2F/4D/8(3:2:2F/4D/8(3:2:2A,/4F,/8(3:2:2F/4D/8(3:2:2A,/4F,/8 | %65
[K:treble] (3:2:2G,/4F/8(3:2:2D/4B,/8(3:2:2G,/4B,/8(3:2:2D/4G/8(3:2:2_A,/4_A/8(3:2:2F/4C/8(3:2:2=A,/4C/8(3:2:2F/4=A/8(3:2:2_B,/4_B/8(3:2:2B,/4B/8(3:2:2B,/4B/8(3:2:2=B,/4=B/8 |1 %66
[M:4/16] (3:2:2B,/4C/8(3:2:2D/4B,/8(3:2:2D/4E/8(3:2:2F/4E/8(3:2:2B/4c/8(3:2:2d/4c/8(3:2:2d/4e/8(3:2:2f/4d/8 :|2 %67
[M:6/16] (3:2:2B,/4C/8(3:2:2D/4B,/8(3:2:2D/4E/8(3:2:2F/4E/8(3:2:2B/4c/8(3:2:2d/4c/8(3:2:2d/4B/8(3:2:2d/4c/8(3:2:2B/4A/8(3:2:2^G/4 z/8[K:bass] (3:2:2^G,,,/4A,,,/8(3:2:2B,,,/4A,,,/8- |: %68
 (3:2:2A,,,/4C,,/8(3:2:2E,,/4^G,,/8(3:2:2A,,/4C,/8(3:2:2E,/4^G,/8A,/4(3:2:2A,/4[A,CE]/8-[A,CE]/4-(3:2:2[A,CE]/4[A,CE]/8-[A,CE]/4-(3:2:2[A,CE]/4[A,CE]/8-[A,CE]/4-(3:2:2[A,CE]/4[A,,,A,,]/8 | %69
 (3:2:2^G,,,/4B,,,/8(3:2:2E,,/4^G,,/8(3:2:2B,,/4E,/8(3:2:2^G,/4A,/8[G,B,E]/4-(3:2:2[G,B,E]/4[G,B,E]/8-[G,B,E]/4-(3:2:2[G,B,E]/4[G,B,E]/8-[G,B,E]/4-(3:2:2[G,B,E]/4[G,B,E]/8-[G,-B,B,-E-]/4(3:2:2[G,B,E]/4[G,B,E]/8 | %70
 ^G,,/4-(3:2:2G,,/4^G,/8G,,/4-(3:2:2G,,/4A,/8B,,/4-(3:2:2B,,/4B,/8C,/4-(3:2:2C,/4C/8D,/4-(3:2:2D,/4D/8^D,/4-(3:2:2D,/4^D/8 | %71
 E/-(3:2:2E/4E,/8(3:2:2F,/4E,/8A,/-(3:2:2A,/4A,,/8(3:2:2B,,/4A,,/8G,,/-(3:2:2G,,/4G,,,/8(3:2:2_A,,,/4G,,,/8 | %72
 (3:2:2G,,,/4B,,,/8(3:2:2D,,/4G,,/8(3:2:2B,,/4D,/8(3:2:2^F,/4G,/8[G,,B,,D,=F,]/4-(3:2:2[G,,B,,D,F,]/4[G,,B,,D,F,]/8-[G,,B,,D,F,]/4-(3:2:2[G,,B,,D,F,]/4[G,,B,,D,F,]/8-[G,,B,,D,F,]/4-(3:2:2[G,,B,,D,F,]/4[G,,B,,D,F,]/8-[G,,B,,D,F,]/4-(3:2:2[G,,B,,D,F,]/4[G,,B,,D,F,]/8 | %73
 (3:2:2C,,/4E,,/8(3:2:2G,,/4B,,/8(3:2:2C,/4E,/8(3:2:2A,/4B,/8(3:2:2C/4F/8(3:2:2E/4D/8(3:2:2C/4C,,/8(3:2:2D,,/4E,,/8(3:2:2F,,/4G,/8(3:2:2F,/4E,/8(3:2:2D,/4D,,/8(3:2:2E,,/4F,,/8 | %74
 G,,/(3:2:2G,/4^F,/8(3:2:2G,/4A,/8B,/-(3:2:2B,/4C/8(3:2:2D/4E/8(3:2:2F/4E/8(3:2:2D/4C/8(3:2:2B,/4C/8(3:2:2B,/4A,/8 |1 %75
 (3:2:2B,/4B,/8-(3:2:2B,/4B,/8-(3:2:2B,/4B,/8(3:2:2C/4B,/8(3:2:2C/4B,/8(3:2:2C/4D/8(3:2:2E/4D/8(3:2:2E/4C/8 z/4 z/8 E,,/8-E,,/4(3:2:2E,,/4E,,/8 :|2 %76
 (3:2:2B,/4B,/8-(3:2:2B,/4B,/8-(3:2:2B,/4B,/8(3:2:2C/4B,/8(3:2:2C/4A,,/8(3:2:2G,,/4F,,/8(3:2:2E,,/4F,,/8(3:2:2E,,/4D,,/8 || %77
[M:9/16] (3C,,/4G,,/4C,,/4(3G,,/4C,,/4G,,/4(3C,,/4G,,/4C,,/4 | %78
 (3G,,/4C,,/4G,,/4(3C,,/4G,,/4C,,/4(3G,,/4C,,/4G,,/4(3C,,/4G,,/4C,,/4(3G,,/4C,,/4G,,/4(3C,,/4G,,/4C,,/4(3G,,/4C,,/4G,,/4(3C,,/4G,,/4C,,/4(3G,,/4C,,/4G,,/4 | %79
 (3C,,/4G,,/4C,,/4(3G,,/4C,,/4G,,/4(3C,,/4G,,/4C,,/4(3G,,/4C,,/4G,,/4(3C,,/4G,,/4C,,/4(3G,,/4C,,/4G,,/4(3C,,/4G,,/4C,,/4(3G,,/4C,,/4G,,/4(3C,,/4G,,/4C,,/4 | %80
 (3G,,/4C,,/4G,,/4(3C,,/4G,,/4C,,/4(3G,,/4C,,/4G,,/4(3C,,/4G,,/4C,,/4(3G,,/4C,,/4G,,/4(3C,,/4G,,/4C,,/4(3G,,/4C,,/4G,,/4(3C,,/4G,,/4C,,/4(3G,,/4C,,/4G,,/4 | %81
 (3C,,/4G,,/4C,,/4(3G,,/4C,,/4G,,/4(3C,,/4G,,/4C,,/4(3G,,/4C,,/4G,,/4(3C,,/4G,,/4C,,/4(3G,,/4C,,/4G,,/4(3C,,/4G,,/4C,,/4(3G,,/4C,,/4G,,/4(3C,,/4G,,/4C,,/4 | %82
 (3G,,/4C,,/4G,,/4(3C,,/4G,,/4C,,/4(3G,,/4C,,/4G,,/4(3C,,/4G,,/4C,,/4(3G,,/4C,,/4G,,/4(3C,,/4G,,/4C,,/4(3G,,/4C,,/4G,,/4(3C,,/4G,,/4C,,/4(3G,,/4C,,/4G,,/4 | %83
 (3C,,/4G,,/4C,,/4(3G,,/4C,,/4G,,/4(3C,,/4G,,/4C,,/4(3G,,/4C,,/4G,,/4(3C,,/4G,,/4C,,/4(3G,,/4C,,/4G,,/4(3C,,/4G,,/4C,,/4(3G,,/4C,,/4G,,/4(3C,,/4G,,/4C,,/4 | %84
 (3G,,/4C,,/4G,,/4(3C,,/4G,,/4C,,/4(3G,,/4C,,/4G,,/4(3C,,/4G,,/4C,,/4(3G,,/4C,,/4G,,/4(3C,,/4G,,/4C,,/4(3G,,/4C,,/4G,,/4(3C,,/4G,,/4C,,/4(3G,,/4C,,/4G,,/4 | %85
 (3B,,/4C,/4D,/4(3E,/4F,/4G,/4(3A,/4B,/4C/4[K:treble](3D/4E/4F/4(3G/4A/4B/4(3c/4e/4d/4e/e/e/ | %86
 e/^d/e/d/e/[eg]/[fg]/[eg]/[fg]/ | [eg]/[fg]/[Bf]/[cf]/[Bf]/[df]/[eg]/[fg]/[^fg]/ | %88
 (3g/4f/4e/4(3^d/4f/4e/4(3=d/4f/4e/4(3d/4e/4f/4(3^f/4g/4^g/4(3a/4^a/4b/4c'/[=f=g]/[eg]/ | %89
 [eg]/[dg]/[eg]/[dg]/[^cg]/[dg]/[fg]/[=cg]/[dg]/ | e/e/e/e/c'/d'/e'/e'/_b/ | %91
 [e_b]/[eg]/[eb]/[eb]/[fa]/f/f/f/e/ | e/d/e/e/e/f/^f/g/[B=f]/ | %93
 [Bf]/[ce]/[df]/[df]/[ce]/[Bd]/[Ac]/[^GB]/[K:bass](3E,/4E,,/4E,/4 | %94
 (3E,,/4E,/4E,,/4(3E,/4E,,/4E,/4(3E,,/4E,/4E,,/4(3E,/4E,,/4E,/4(3E,,/4E,/4E,,/4(3E,/4E,,/4E,/4(3E,,/4E,/4E,,/4(3E,/4E,,/4E,/4(3E,,/4E,/4E,,/4 | %95
 (3E,/4E,,/4E,/4(3E,,/4E,/4E,,/4(3E,/4E,,/4E,/4(3E,,/4E,/4E,,/4(3E,/4E,,/4E,/4(3E,,/4E,/4E,,/4(3E,/4E,,/4E,/4(3E,,/4E,/4E,,/4(3E,/4E,,/4E,/4 | %96
 (3E,,/4E,/4E,,/4(3E,/4E,,/4E,/4(3E,,/4E,/4E,,/4(3E,/4E,,/4E,/4(3E,,/4E,/4E,,/4(3E,/4E,,/4E,/4(3E,,/4E,/4E,,/4(3E,/4E,,/4E,/4(3E,,/4E,/4E,,/4 | %97
 (3E,/4E,,/4E,/4(3E,,/4E,/4E,,/4(3E,/4E,,/4E,/4(3E,,/4E,/4E,,/4(3E,/4E,,/4E,/4(3E,,/4E,/4E,,/4(3A,,/4A,,,/4A,,/4(3A,,,/4A,,/4A,,,/4(3A,,/4A,,,/4A,,/4 | %98
 (3G,,,/4G,,/4G,,,/4(3G,,/4G,,,/4G,,/4(3G,,,/4G,,/4G,,,/4(3G,,/4G,,,/4G,,/4(3G,,,/4G,,/4G,,,/4(3G,,/4G,,,/4G,,/4(3G,,,/4G,,/4G,,,/4(3G,,/4G,,,/4G,,/4(3G,,,/4G,,/4G,,,/4 | %99
 (3G,,/4G,,,/4G,,/4(3G,,,/4G,,/4G,,,/4(3G,,/4G,,,/4G,,/4(3G,,,/4G,,/4G,,,/4(3G,,/4G,,,/4G,,/4(3G,,,/4G,,/4G,,,/4(3G,,/4G,,,/4G,,/4(3G,,,/4G,,/4G,,,/4(3G,,/4G,,,/4G,,/4 | %100
 (3G,,,/4G,,/4G,,,/4(3G,,/4G,,,/4G,,/4(3G,,,/4G,,/4G,,,/4(3G,,/4G,,,/4G,,/4(3G,,,/4G,,/4G,,,/4(3G,,/4G,,,/4G,,/4(3G,,,/4G,,/4G,,,/4(3G,,/4G,,,/4G,,/4(3G,,,/4G,,/4G,,,/4 | %101
 (3G,,/4G,,,/4G,,/4(3G,,,/4G,,/4G,,,/4(3G,,/4C,,/4G,,/4(3C,,/4G,,/4C,,/4(3G,,/4C,,/4G,,/4(3C,,/4G,,/4C,,/4(3^F,,/4B,,,/4F,,/4(3B,,,/4F,,/4B,,,/4(3F,,/4B,,,/4F,,/4 | %102
 [G,,,G,,]/[K:treble] e/e/e/e/e/e/e/e/ | e/e/e/e/e/e/e/e/e/ | e/e/e/e/e/e/e/e/e/ | %105
 e/e/e/e/e/e/A/a/_b/ | g/g/g/g/g/g/g/g/g/ | g/g/g/g/g/g/a/^g/a/ | _b/b/b/b/b/b/=b/b/b/ | %109
 b/[gb]/c'/c'/[ceg]/[ceg]/[ceg]/[ceg]/[ceg]/ | %110
 [cdfg]/[cdfg]/[cdfg]/[cdfg]/[cdfg]/[cdfg]/[cdfg]/[cdfg]/[cdfg]/ | %111
 [ceg]/[ceg]/[ceg]/(3g/4f/4e/4(3f/4e/4d/4(3f/4e/4c/4c/[CEG]/[CEG]/ | %112
 [CDFG]/[CDFG]/[CDFG]/[CDFG]/[CDFG]/[CDFG]/[CDFG]/[CDFG]/[CDFG]/ | %113
[K:bass] (3C,/4C/4E/4(3E,/4C/4E/4(3G,/4C/4E/4(3B,/4C/4E/4(3G,/4C/4E/4(3F,/4C/4E/4(3E,/4C/4E/4(3D,/4C/4E/4(3C,/4C/4E/4 | %114
 (3A,,/4C/4E/4(3C,/4A,/4C/4(3E,/4A,/4C/4(3^G,/4A,/4C/4(3E,/4A,/4C/4(3D,/4A,/4C/4(3C,/4A,/4C/4(3B,,/4A,/4C/4(3A,,/4A,/4C/4 | %115
 (3G,,/4G,/4C/4(3C,/4G,/4C/4(3E,/4G,/4C/4(3G,,/4G,/4B,/4(3B,,/4G,/4B,/4(3D,/4G,/4B,/4(3G,,/4F,/4G,/4(3G,,/4F,/4G,/4(3G,,/4A,,/4B,,/4 | %116
 z9/2 | z9/2 | (3G,,,/4C,,/4E,,/4(3G,,/4C,/4E,/4G,/(3G,,,/4B,,,/4D,,/4(3G,,/4B,,/4D,/4G,/ z z/ | %119
 z3/2 z3/2 [C,,C,][G,,,G,,]/ | [G,,,G,,]3[K:treble] cB/ | B3 cB/ | B3/2B3/2B3/2 | %123
 B3/2_B3/2[K:bass] [F,,F,][_B,,,_B,,]/ | [_B,,,_B,,]3[K:treble] F_B,/ | _B,3/2B,3/2B,3/2 | %126
 _B,3/2B,3/2B,3/2 | _B,3/2 z3/2 z3/2 | z9/2 ||[K:Eb][K:bass] z3/2 z3/2 B,,,3/2- | %130
 B,,,3- B,,,A,,,/ | G,,,3 _G,,,3/2 | F,,,3/2-F,,,G,,,/A,,,=A,,,/ | B,,, z/ z z2 | %134
 z/ [E,,E,] z/ [F,,F,] z/ [G,,G,]/[C,,C,]/ | [=B,,,=B,,]/ z4 | %136
 z/ [C,,C,] z/ [_D,,_D,] z/ [E,,E,]/[A,,,A,,]/ | [G,,,G,,] z/ z z2 x/ | %138
 z/ [A,,A,] z/ [^F,,^F,] z/ [G,,G,] | z4 z/ | z/ [E,,E,] z/ [C,,C,] z/ [D,,D,]/[C,,C,]/ | %141
 [=B,,,=B,,]/ z4 | %142
 z/ [B,,,B,,] z/ [G,,,G,,](3A,,,/4A,,/4A,,,/4(3A,,/4A,,,/4A,,/4(3A,,,/4A,,/4A,,,/4 | %143
[M:6/16] (3^F,,/4^F,,,/4F,,/4(3F,,,/4F,,/4F,,,/4(3F,,/4F,,,/4F,,/4(3G,,,/4G,,/4G,,,/4(3G,,/4G,,,/4G,,/4(3G,,,/4G,,/4G,,,/4 | %144
[K:C][M:3/16] (3G,,/4C,,/4E,,/4(3G,,/4C,/4E,/4(3C,/4E,/4G,/4 x/ | %145
[M:9/16] (3C,/4E,/4G,/4(3B,,/4D,/4G,/4(3C,/4E,/4G,/4(3D,/4F,/4G,/4(3C,/4E,/4G,/4(3D,/4F,/4G,/4(3B,,/4D,/4B,,/4(3A,,/4C,/4G,/4(3B,,/4D,/4G,/4 | %146
 (3B,,/4D,/4G,/4(3C,/4E,/4G,/4(3B,,/4D,/4G,/4(3C,/4E,/4G,/4(3D,/4F,/4G,/4(3C,/4E,/4G,/4(3D,/4F,/4G,/4(3^C,/4E,/4G,/4(3D,/4F,/4G,/4 | %147
 (3E,/4G,/4E,/4(3G,/4E,/4G,/4(3E,/4G,/4E,/4(3C,/4G,/4C,/4(3G,/4C,/4G,/4(3C,/4G,/4C,/4(3E,/4G,/4E,/4(3G,/4D,/4G,/4(3C,/4G,/4C,/4 | %148
 (3G,,/4^F,/4G,/4(3^F,,/4F,/4G,/4(3G,,/4F,/4G,/4(3G,,/4F,/4G,/4(3F,,/4F,/4G,/4(3G,,/4F,/4G,/4(3G,,/4F,/4G,/4(3F,,/4F,/4G,/4(3=F,,/4^F,/4G,/4 | %149
 (9:6:9E,,/4C,/4G,/4^D,,/4C,/4G,/4E,,/4C,/4G,/4(9:6:9C,/4E,/4G,/4B,,/4D,/4G,/4C,/4E,/4G,/4(9:6:9_B,,/4D,/4G,/4A,,/4E,/4G,/4B,,/4D,/4G,/4 | %150
 (3A,,/4E,/4G,/4(3A,/4G,/4E,/4(3A,,/4E,/4G,/4(3A,,/4D,/4F,/4(3A,/4F,/4D,/4(3A,,/4D,/4F,/4(3A,,/4D,/4F,/4(3A,,/4D,/4F,/4(3_A,,/4D,/4^F,/4 | %151
 (3G,,/4D,/4G,/4(3G,,/4D,/4G,/4(3G,,/4D,/4G,/4(3G,,/4D,/4A,/4(3G,,/4D,/4A,/4(3G,,/4D,/4A,/4(3G,,/4G,/4B,/4(3A,,/4G,/4C/4(3B,,/4G,/4D/4 | %152
 (3B,,/4G,/4B,/4(3C,/4E,/4G,/4(3D,/4F,/4G,/4(3D,/4F,/4G,/4(3C,/4E,/4G,/4(3B,,/4E,/4^G,/4(3B,,/4E,/4=G,/4(3A,,/4E,/4A,/4(3^G,,/4E,/4G,/4 | %153
 (3A,,/4E,/4A,/4(3^G,,/4E,/4^G,/4(3A,,/4E,/4A,/4(3A,,/4E,/4A,/4(3G,,/4E,/4G,/4(3A,,/4E,/4A,/4(3A,,/4E,/4A,/4(3A,,/4E,/4A,/4(3G,,/4E,/4B,/4 | %154
 (3^G,,/4E,/4B,/4(3A,,/4E,/4B,/4(3G,,/4E,/4B,/4(3G,,/4E,/4B,/4(3A,,/4E,/4B,/4(3G,,/4E,/4B,/4(3G,,/4E,/4B,/4(3A,,/4E,/4B,/4(3G,,/4E,/4B,/4 | %155
 (9:6:9^G,,/4E,/4B,/4A,,/4E,/4B,/4G,,/4E,/4B,/4(9:6:9A,,/4E,/4B,/4B,,/4E,/4B,/4A,,/4E,/4B,/4(9:6:9F,,/4F,/4F,,/4F,/4F,,/4F,/4^D,,/4^D,/4D,,/4 | %156
 (9:6:9E,,/4^D,/4E,/4^D,,/4D,/4E,/4E,,/4D,/4E,/4(9:6:9E,,/4D,/4E,/4D,,/4D,/4E,/4E,,/4D,/4E,/4(9:6:9A,,,/4^F,,/4G,,/4^G,,,/4F,,/4G,,/4A,,,/4F,,/4G,,/4 | %157
 (9:6:9G,,,/4^F,,/4G,,/4^F,,,/4F,,/4G,,/4G,,,/4F,,/4G,,/4(9:6:9G,,,/4F,,/4G,,/4F,,,/4F,,/4G,,/4G,,,/4F,,/4G,,/4(9:6:9G,,,/4F,,/4G,,/4F,,,/4F,,/4G,,/4G,,,/4F,,/4G,,/4 | %158
 (9:6:9G,,,/4C,,/4G,,/4^F,,,/4C,,/4^F,,/4G,,,/4C,,/4G,,/4(9:6:9G,,,/4C,,/4G,,/4F,,,/4C,,/4F,,/4G,,,/4C,,/4G,,/4(9:6:9=F,,,/4C,,/4=F,,/4F,,,/4C,,/4F,,/4F,,,/4C,,/4F,,/4 | %159
 (9:6:9G,,,/4C,,/4D,,/4G,,/4C,/4D,/4G,/4D,/4C,/4(9:6:9G,,/4C,/4D,/4G,/4D,/4C,/4G,,/4G,/4C/4(9:6:9G,,/4G,/4C/4A,,/4G,/4C/4B,,/4G,/4D/4 | %160
 (9:6:9B,,/4G,/4B,/4G,,/4G,/4D/4C,/4G,/4C/4(9:6:9C,/4G,/4C/4B,,/4G,/4B,/4C,/4G,/4C/4(9:6:9^F,,/4E,/4^F,/4E,,/4E,/4B,/4A,,/4E,/4A,/4 | %161
 (9:6:9A,,/4E,/4A,/4^G,,/4E,/4^G,/4A,,/4E,/4A,/4(9:6:9E,,/4C,/4E,/4C,,/4E,/4=G,/4F,,/4C,/4F,/4(9:6:9F,,/4C,/4F,/4E,,/4A,,/4E,/4D,,/4A,,/4D,/4 | %162
 (9:6:9^C,,/4A,,/4^C,/4A,,,/4A,,/4E,/4D,,/4A,,/4D,/4(9:6:9D,,/4A,,/4D,/4C,,/4A,,/4C,/4D,,/4A,,/4D,/4(9:6:9=C,,/4F,,/4=C,/4B,,,/4F,,/4B,,/4C,,/4F,,/4C,/4 | %163
 (9:6:9B,,,/4G,,/4B,,/4^A,,,/4G,,/4^A,,/4B,,,/4G,,/4B,,/4(9:6:9B,,,/4G,,/4B,,/4A,,,/4G,,/4A,,/4B,,,/4G,,/4B,,/4(9:6:9G,,,/4^F,,/4G,,/4=A,,,/4G,,/4=A,,/4B,,,/4G,,/4B,,/4 | %164
 (9:6:9C,,/4G,,/4C,/4B,,,/4G,,/4B,,/4C,,/4G,,/4C,/4(9:6:9C,,/4B,,/4C,/4D,,/4C,/4D,/4E,,/4C,/4E,/4(9:6:9F,,/4C,/4F,/4F,,/4C,/4F,/4^F,,/4C,/4^F,/4 | %165
 (9:6:9G,,/4C,/4G,/4G,,/4B,,/4G,/4G,,/4C,/4G,/4(9:6:9G,,/4B,,/4G,/4G,,/4C,/4G,/4G,,/4B,,/4G,/4G,E,/ | %166
 E,3/2E,C,/ C,3/2 | C,A,,<A,,(9:6:9^C,/4A,/4^C/4A,,/4A,/4E/4D,/4A,/4D/4 | %168
 (9:6:9D,/4A,/4D/4^C,/4A,/4^C/4D,/4A,/4D/4(9:6:9D,/4A,/4D/4C,/4A,/4C/4D,/4A,/4D/4(9:6:9=C,/4F,/4=C/4B,,/4F,/4B,/4C,/4F,/4C/4 | %169
 (9:6:9B,,/4G,/4B,/4^A,,/4G,/4^A,/4B,,/4G,/4B,/4(9:6:9B,,/4G,/4B,/4A,,/4G,/4A,/4B,,/4G,/4B,/4(9:6:9B,,/4G,/4B,/4A,,/4G,/4A,/4B,,/4G,/4B,/4 | %170
 (9:6:9A,,/4D,/4A,/4^G,,/4D,/4^G,/4A,,/4D,/4A,/4(9:6:9A,,/4D,/4A,/4G,,/4D,/4G,/4A,,/4D,/4A,/4(9:6:9A,,/4D,/4A,/4G,,/4D,/4G,/4A,,/4D,/4A,/4 | %171
 (9:6:9G,,/4C,/4G,/4G,,/4B,,/4G,/4G,,/4C,/4G,/4(9:6:9G,,/4D,/4G,/4G,,/4^C,/4G,/4G,,/4D,/4G,/4(9:6:9G,,/4E,/4G,/4G,,/4E,/4G,/4G,,/4F,/4G,/4 | %172
 (9:6:9G,,/4F,/4G,/4G,,/4E,/4G,/4G,,/4F,/4G,/4(9:6:9G,,/4F,/4G,/4G,,/4F,/4G,/4G,,/4E,/4G,/4(9:6:9G,,/4E,/4G,/4G,,/4D,/4G,/4G,,/4C,/4G,/4 | %173
 (9:6:9G,,/4C,/4G,/4G,,/4B,,/4G,/4G,,/4C,/4G,/4(9:6:9G,,/4A,,/4G,/4G,,/4A,,/4[G,G,]/4G,,/4B,,/4G,/4(6:4:6G,,/4^C,/4G,/4G,,/4D,/4G,/4G,,/8B,,/8D,/8F,/8 | %174
 G,/8B,/8D/8G/8 z4 | z3[K:treble] (9:6:9e/4c/4e/4c/4e/4c/4e/4c/4e/4 | %176
 (9:6:9c/4e/4c/4e/4c/4e/4c/4e/4c/4(9:6:9e/4^c/4e/4c/4e/4c/4e/4c/4e/4(9:6:9B/4f/4B/4f/4B/4f/4B/4f/4B/4 | %177
 (9:6:9f/4B/4f/4B/4f/4B/4f/4B/4f/4(9:6:9c/4e/4c/4e/4c/4e/4^c/4e/4c/4(9:6:9f/4d/4f/4^d/4^f/4d/4e/4d/4e/4 | %178
 (9:6:9E/4e/4E/4e/4E/4e/4E/4e/4E/4(9:6:9c/4C/4c/4C/4c/4C/4c/4C/4c/4(9:6:9E/4e/4E/4e/4E/4e/4E/4e/4E/4 | %179
 (9:6:9e/4G/4e/4G/4e/4G/4e/4G/4e/4(9:6:9G/4d/4G/4d/4G/4d/4G/4d/4G/4(9:6:9d/4F/4d/4F/4d/4F/4d/4F/4d/4 | %180
 (9:6:9E/4G/4E/4G/4E/4G/4E/4G/4E/4(9:6:9C/4E/4C/4E/4C/4E/4C/4E/4C/4(9:6:9_B,/4C/4B,/4C/4B,/4C/4B,/4C/4B,/4 | %181
 (9:6:9A,/4C/4A,/4C/4A,/4C/4A,/4C/4A,/4(9:6:9C/4A,/4C/4B,/4D/4B,/4D/4B,/4D/4(9:6:9B,/4F/4B,/4F/4B,/4F/4E/4C/4E/4 | %182
 (9:6:9D/4F/4D/4F/4D/4F/4D/4F/4D/4(9:6:9C/4E/4C/4E/4D/4F/4C/4E/4C/4(9:6:9B,/4D/4B,/4C/4A,/4C/4B,/4D/4B,/4 | %183
[K:bass] (9:6:9C,/4E/4C/4E/4C/4E/4C/4E/4C/4(9:6:9C,/4E/4C/4E/4C/4E/4C/4E/4C/4(9:6:9C,/4F/4C/4F/4C/4F/4C/4F/4C/4 | %184
 (9:6:9C,/4E/4C/4E/4C/4E/4C/4E/4C/4(9:6:9C,/4E,/4C,/4E,/4C,/4E,/4C,/4E,/4C,/4(9:6:9C,,/4F,/4C,/4F,/4C,/4F,/4C,/4F,/4C,/4 | %185
 (9:6:9C,,/4E,/4C,/4E,/4C,/4E,/4C,/4E,/4C,/4(9:6:9C,,/4E,/4C,/4E,/4C,/4E,/4C,/4E,/4C,/4(9:6:9C,,/4E,/4C,/4E,/4C,/4E,/4C,/4E,/4C,/4 | %186
 z4 z/ | z4 z/ | z7/2 z | z3 z3/2 | z3 z3/2 | z4 z/ |] %192

